vendor/shopware/storefront/Resources/app/storefront/dist/assets/icon/default/plus-block.svg

<svg xmlns="http://www.w3.org/2000/svg" width="24" height="24" viewBox="0 0 24 24">
  <path fill="#758CA3" fill-rule="evenodd" d="M11,11 L11,7 C11,6.44771525 11.4477153,6 12,6 C12.5522847,6 13,6.44771525 13,7 L13,11 L17,11 C17.5522847,11 18,11.4477153 18,12 C18,12.5522847 17.5522847,13 17,13 L13,13 L13,17 C13,17.5522847 12.5522847,18 12,18 C11.4477153,18 11,17.5522847 11,17 L11,13 L7,13 C6.44771525,13 6,12.5522847 6,12 C6,11.4477153 6.44771525,11 7,11 L11,11 Z M3,8.95550994e-16 L21,8.95550994e-16 C22.6568542,1.02790497e-15 24,1.34314575 24,3 L24,21 C24,22.6568542 22.6568542,24 21,24 L3,24 C1.34314575,24 2.02906125e-16,22.6568542 0,21 L0,3 C-2.02906125e-16,1.34314575 1.34314575,2.08071949e-15 3,8.95550994e-16 Z M3,2 C2.44771525,2 2,2.44771525 2,3 L2,21 C2,21.5522847 2.44771525,22 3,22 L21,22 C21.5522847,22 22,21.5522847 22,21 L22,3 C22,2.44771525 21.5522847,2 21,2 L3,2 Z"/>
</svg>

<svg xmlns="http://www.w3.org/2000/svg" width="24" height="24" viewBox="0 0 24 24"><path fill="#758CA3" fill-rule="evenodd" d="M11 11V7c0-.5523.4477-1 1-1s1 .4477 1 1v4h4c.5523 0 1 .4477 1 1s-.4477 1-1 1h-4v4c0 .5523-.4477 1-1 1s-1-.4477-1-1v-4H7c-.5523 0-1-.4477-1-1s.4477-1 1-1h4zM3 0h18c1.6569 0 3 1.3431 3 3v18c0 1.6569-1.3431 3-3 3H3c-1.6569 0-3-1.3431-3-3V3c0-1.6569 1.3431-3 3-3zm0 2c-.5523 0-1 .4477-1 1v18c0 .5523.4477 1 1 1h18c.5523 0 1-.4477 1-1V3c0-.5523-.4477-1-1-1H3z"/></svg>
